tools/download-figma-icons/icons/outlined-large/shopping-basket.svg

<svg width="65" height="64" viewBox="0 0 65 64" fill="none" xmlns="http://www.w3.org/2000/svg">
<path d="M64.02 28.6901C64.02 24.8265 60.9271 21.6835 57.1135 21.6835H47.7648L39.9875 11.3038C38.0957 8.78144 35.193 7.33008 32.04 7.33008C28.8871 7.33008 25.9844 8.78144 24.0926 11.3038L16.3153 21.6835H6.9365C3.13294 21.6835 0.0400391 24.8265 0.0400391 28.6901C0.0400391 32.1834 2.58242 35.0861 5.88552 35.6066L11.0003 52.6025C11.741 55.0648 13.9731 56.7264 16.5455 56.7264H47.5546C50.127 56.7264 52.3591 55.0748 53.0998 52.6025L58.2146 35.6066C61.5077 35.0761 64.04 32.1834 64.04 28.7001L64.02 28.6901ZM26.4948 13.1055C27.8161 11.3438 29.838 10.3329 32.04 10.3329C34.2421 10.3329 36.264 11.3438 37.5852 13.1055L44.0113 21.6835H20.0588L26.4848 13.1055H26.4948ZM50.2171 51.7317C49.8667 52.9028 48.7657 53.7136 47.5446 53.7136H16.5355C15.2943 53.7136 14.2233 52.9228 13.863 51.7317L9.03848 35.6967H55.0316L50.2071 51.7317H50.2171ZM57.1236 32.6939H6.9365C4.78449 32.6939 3.03285 30.9022 3.03285 28.6901C3.03285 26.478 4.78449 24.6863 6.9365 24.6863H57.1135C59.2656 24.6863 61.0172 26.478 61.0172 28.6901C61.0172 30.9022 59.2656 32.6939 57.1135 32.6939H57.1236Z" fill="black"/>
</svg>

<svg xmlns="http://www.w3.org/2000/svg" width="65" height="64" fill="none" viewBox="0 0 65 64"><path fill="currentColor" d="M64.02 28.69c0-3.864-3.093-7.007-6.906-7.007h-9.35l-7.777-10.38A9.86 9.86 0 0 0 32.04 7.33a9.86 9.86 0 0 0-7.947 3.974l-7.778 10.38H6.936C3.133 21.684.04 24.825.04 28.69c0 3.493 2.542 6.396 5.846 6.917L11 52.603a5.76 5.76 0 0 0 5.546 4.123h31.009a5.75 5.75 0 0 0 5.545-4.123l5.115-16.996c3.293-.53 5.825-3.424 5.825-6.907zM26.495 13.105a6.87 6.87 0 0 1 5.545-2.772 6.87 6.87 0 0 1 5.545 2.772l6.426 8.578H20.06l6.426-8.577zm23.722 38.627a2.8 2.8 0 0 1-2.672 1.982h-31.01a2.77 2.77 0 0 1-2.672-1.982L9.038 35.697h45.994l-4.825 16.035zm6.907-19.038H6.937c-2.153 0-3.904-1.792-3.904-4.004s1.751-4.004 3.903-4.004h50.178c2.152 0 3.903 1.792 3.903 4.004s-1.751 4.004-3.904 4.004z"/></svg>
